findly-builder/apps/searchassist/src/assets/icons/start-black.svg

<svg width="14" height="14" viewBox="0 0 14 14" fill="none" xmlns="http://www.w3.org/2000/svg">
<path d="M7.39 0.8119C7.21648 0.396078 6.63278 0.396017 6.45921 0.811817C5.83348 2.31081 4.85759 4.65052 4.85759 4.65052L0.936771 5.08057C0.508061 5.1276 0.330903 5.66016 0.644617 5.95883L3.59523 8.76796L2.76197 12.8863C2.67368 13.3227 3.14294 13.6557 3.51985 13.4242L6.9247 11.3324L10.3263 13.4241C10.703 13.6557 11.1724 13.323 11.0844 12.8867L10.2542 8.76796L13.2019 5.95864C13.5153 5.65991 13.3381 5.12762 12.9096 5.08058L8.99181 4.65052L7.39 0.8119ZM6.9247 2.32102L8.29357 5.59825L11.7177 5.97256L9.15355 8.41754L9.86363 11.9456L6.9247 10.1378L3.98183 11.9456L4.69585 8.41754L2.13563 5.97256L5.55583 5.59825L6.9247 2.32102Z" fill="#9AA0A6"/>
</svg>

<svg width="14" height="14" fill="none" xmlns="http://www.w3.org/2000/svg"><path d="M7.39.812a.503.503 0 0 0-.93 0C5.832 2.31 4.857 4.65 4.857 4.65l-3.921.43a.511.511 0 0 0-.292.878l2.95 2.809-.833 4.118a.506.506 0 0 0 .758.538l3.405-2.092 3.401 2.092a.506.506 0 0 0 .758-.537l-.83-4.119 2.948-2.81a.511.511 0 0 0-.292-.877l-3.918-.43L7.39.81ZM6.925 2.32l1.369 3.277 3.424.375-2.564 2.445.71 3.528-2.94-1.808-2.942 1.808.714-3.528-2.56-2.445 3.42-.375L6.925 2.32Z" fill="#9AA0A6"/></svg>
